source/images/icons/mixcloud.svg

<svg height="40" viewBox="0 0 40 40" width="40" xmlns="http://www.w3.org/2000/svg"><g fill="#fff" fill-rule="evenodd"><path d="m36.5677143 31.5714286c-.2544286 0-.5114286-.0728572-.7388572-.2248572-.61-.4092857-.7728571-1.2358571-.3647142-1.8458571 1.2275714-1.8322857 1.8771428-3.9777143 1.8771428-6.2044286 0-2.227-.6495714-4.3724286-1.8762857-6.2042857-.409-.61-.2465714-1.4361429.3638571-1.8452857.6094286-.4091429 1.4351429-.2457143 1.8445715.3638571 1.5225714 2.2715715 2.3265714 4.929 2.3265714 7.6857143 0 2.756-.804 5.4138572-2.3261429 7.6854286-.2571428.3828571-.6771428.5897143-1.1061428.5897143"/><path d="m32.7641429 29.412c-.2564286 0-.5161429-.0742857-.7444286-.2292857-.608-.4118572-.767-1.239-.3547143-1.8477143.8095714-1.195 1.2375714-2.5915714 1.2375714-4.0387143 0-1.4457143-.4282857-2.8432857-1.238-4.0408571-.4118571-.6078572-.2524285-1.4352857.356-1.8468572.6084286-.4122857 1.4347143-.2515714 1.8458572.3562857 1.1092857 1.639 1.6957143 3.5521429 1.6957143 5.5314286 0 1.9811429-.5864286 3.8938572-1.6961429 5.5315714-.257.3794286-.6754286.5841429-1.1018571.5841429"/><path d="m25.267 26.5704286h-18.17071429c-2.44657142 0-4.437-1.9841429-4.437-4.4238572 0-2.4405714 1.99042858-4.4261428 4.437-4.4261428 1.18714286 0 2.30157143.4602857 3.13714289 1.297.5194285.5195714 1.361.5195714 1.8808571 0 .5191429-.5195715.5191429-1.3611429 0-1.881-.9147143-.9151429-2.0397143-1.5414286-3.26442856-1.851 1.26228576-2.7747143 4.06228576-4.6248572 7.19071426-4.6248572 4.3542857 0 7.8964286 3.5365715 7.8964286 7.8832857 0 .8468572-.1332857 1.6768572-.3955714 2.4687143-.2311429.697.146 1.4497143.8431428 1.6811429.139.0461428.2801429.0681428.419.0681428.5574286 0 1.0767143-.3535714 1.2615715-.9117142.1734285-.5227143.3038571-1.058.3924285-1.6012858 1.2231429.4764286 2.093 1.6614286 2.093 3.0474286 0 1.8051429-1.4728571 3.2741429-3.2835714 3.2741429zm1.2775714-9.066c-.5248571-5.3277143-5.0351428-9.5044286-10.504-9.5044286-4.5311428 0-8.54342854 2.909-9.98699997 7.1451429-3.419.5062857-6.05357143 3.4484285-6.05357143 7.0014285 0 3.9061429 3.18357143 7.084 7.09628571 7.084h18.17071429c3.2768571 0 5.9427143-2.6622857 5.9427143-5.9342857 0-2.8335714-2.0008572-5.2064286-4.6651429-5.7918571z"/></g></svg>

<svg width="40px" height="40px" viewBox="0 0 40 40" version="1.1" xmlns="http://www.w3.org/2000/svg" xmlns:xlink="http://www.w3.org/1999/xlink">
  <g id="mixcloud" stroke="none" stroke-width="1" fill="none" fill-rule="evenodd">
    <path d="M36.5677143,31.5714286 C36.3132857,31.5714286 36.0562857,31.4985714 35.8288571,31.3465714 C35.2188571,30.9372857 35.056,30.1107143 35.4641429,29.5007143 C36.6917143,27.6684286 37.3412857,25.523 37.3412857,23.2962857 C37.3412857,21.0692857 36.6917143,18.9238571 35.465,17.092 C35.056,16.482 35.2184286,15.6558571 35.8288571,15.2467143 C36.4382857,14.8375714 37.264,15.001 37.6734286,15.6105714 C39.196,17.8821429 40,20.5395714 40,23.2962857 C40,26.0522857 39.196,28.7101429 37.6738571,30.9817143 C37.4167143,31.3645714 36.9967143,31.5714286 36.5677143,31.5714286" fill="#FFFFFF"></path>
    <path d="M32.7641429,29.412 C32.5077143,29.412 32.248,29.3377143 32.0197143,29.1827143 C31.4117143,28.7708571 31.2527143,27.9437143 31.665,27.335 C32.4745714,26.14 32.9025714,24.7434286 32.9025714,23.2962857 C32.9025714,21.8505714 32.4742857,20.453 31.6645714,19.2554286 C31.2527143,18.6475714 31.4121429,17.8201429 32.0205714,17.4085714 C32.629,16.9962857 33.4552857,17.157 33.8664286,17.7648571 C34.9757143,19.4038571 35.5621429,21.317 35.5621429,23.2962857 C35.5621429,25.2774286 34.9757143,27.1901429 33.866,28.8278571 C33.609,29.2072857 33.1905714,29.412 32.7641429,29.412" fill="#FFFFFF"></path>
    <path d="M25.267,26.5704286 L7.09628571,26.5704286 C4.64971429,26.5704286 2.65928571,24.5862857 2.65928571,22.1465714 C2.65928571,19.706 4.64971429,17.7204286 7.09628571,17.7204286 C8.28342857,17.7204286 9.39785714,18.1807143 10.2334286,19.0174286 C10.7528571,19.537 11.5944286,19.537 12.1142857,19.0174286 C12.6334286,18.4978571 12.6334286,17.6562857 12.1142857,17.1364286 C11.1995714,16.2212857 10.0745714,15.595 8.84985714,15.2854286 C10.1121429,12.5107143 12.9121429,10.6605714 16.0405714,10.6605714 C20.3948571,10.6605714 23.937,14.1971429 23.937,18.5438571 C23.937,19.3907143 23.8037143,20.2207143 23.5414286,21.0125714 C23.3102857,21.7095714 23.6874286,22.4622857 24.3845714,22.6937143 C24.5235714,22.7398571 24.6647143,22.7618571 24.8035714,22.7618571 C25.361,22.7618571 25.8802857,22.4082857 26.0651429,21.8501429 C26.2385714,21.3274286 26.369,20.7921429 26.4575714,20.2488571 C27.6807143,20.7252857 28.5505714,21.9102857 28.5505714,23.2962857 C28.5505714,25.1014286 27.0777143,26.5704286 25.267,26.5704286 Z M26.5445714,17.5044286 C26.0197143,12.1767143 21.5094286,8 16.0405714,8 C11.5094286,8 7.49714286,10.909 6.05357143,15.1451429 C2.63457143,15.6514286 0,18.5935714 0,22.1465714 C0,26.0527143 3.18357143,29.2305714 7.09628571,29.2305714 L25.267,29.2305714 C28.5438571,29.2305714 31.2097143,26.5682857 31.2097143,23.2962857 C31.2097143,20.4627143 29.2088571,18.0898571 26.5445714,17.5044286 Z" fill="#FFFFFF"></path>
  </g>
</svg>
